simple/SoccerBall.svg

<svg xmlns="http://www.w3.org/2000/svg" viewBox="0 0 36 36">
	<defs>
		<clipPath id="ball1">
			<circle r="18" cx="18" cy="18"/>
		</clipPath>
	</defs>
	
	<circle r="18" cx="18" cy="18" fill="#F5F8FA"/>
	
	<g stroke-width="2" stroke="#CCD6DD" fill="none">
		<path d="M 18,10 L 18,3"/>
		<path d="M 11.4165,14.5 L 3.375,11.9585"/>
		<path d="M 25.042,14.2085 L 31.792,12.25"/>
		<path d="M 27.042,29.167 L 21.583,21.834"/>
		<path d="M 8.75,29.084 L 13.875,21.709"/>
		
		<path d="M 3.5,26.0625 L 1.3125,18"/>
		<path d="M 22,33 L 13,33"/>
		<path d="M 32.125,26.125 L 34.25,17.5"/>
		<path d="M 30.3125,6.6875 L 22.75,2.3125"/>
		<path d="M 5.5,6.6875 L 11.6875,2.25"/>
	</g>
	
	<g clip-path="url(#ball1)">
		radius 1:
		<path fill="#31373D" d="M 25.4932,13.5161 a 1,1 0 01 0.372,1.136 l -2.917,8.667 a 1,1 0 01 -0.948,0.681 h-8.959 a 1,1 0 01 -0.96,-0.721 l -2.5,-8.582 a 1,1 0 01 0.375,-1.091 l 7.167,-5.167 a 1,1 0 01 1.162,-0.006 l 7.208,5.083 Z"/>
		<path fill="#31373D" d="M 6.9804,6.1997 l -1.334,6.542 a 1,1 0 01 -0.108,0.291 l -3.375,6 a 1,1 0 01 -1.522,0.269 l -2.291,-1.958 a 1,1 0 01 -0.35,-0.76 v-7.584 a 1,1 0 01 0.399,-0.799 l 4,-3 a 1,1 0 01 0.601,-0.201 h3 a 1,1 0 01 0.98,1.2 Z"/>
		radius 0.75:
		<path fill="#31373D" d="M 23.7354,-1.1484 l 0.75,3.708 a 0.75,0.75 0 01 -0.613,0.889 l -6.084,1 a 0.75,0.75 0 01 -0.243,0 l -6.375,-1.041 a 0.75,0.75 0 01 -0.536,-1.102 c 0.526,-0.957 1.304,-2.383 1.384,-2.557 a 0.75,0.75 0 01 0.614,-0.453 l 10.292,-1.042 a 0.75,0.75 0 01 0.811,0.598 Z"/>
		<path fill="#31373D" d="M 37.6973,16.6411 c 0.133,0.335 0.008,0.547 -0.297,0.74 c -2.806,1.774 -2.932,1.619 -3.181,1.619 h-0.006 c -0.241,0 -0.472,0.053 -0.613,-0.143 c -0.051,-0.071 -0.09,-0.067 -0.114,-0.151 c -0.228,-0.48 -1.889,-3.277 -3.381,-5.781 a 0.75,0.75 0 01 -0.093,-0.224 l -1.167,-6.198 a 0.75,0.75 0 01 0.785,-0.879 l 3.334,0.209 a 0.75,0.75 0 01 0.65,0.475 l 4.083,10.333 Z"/>
		<path fill="#31373D" d="M 14.3491,32.832 a 0.75,0.75 0 01 -0.06,1.062 l -4.125,3.667 a 0.75,0.75 0 01 -0.874,0.087 l -7.333,-4.25 a 0.75,0.75 0 01 -0.374,-0.663 l 0.083,-4.125 a 0.75,0.75 0 01 0.02,-0.154 c 0.895,-3.864 0.968,-3.956 1.645,-3.956 a 0.75,0.75 0 01 0.241,0.039 c 0.072,0.024 0.181,0.061 6.066,3.13 a 0.75,0.75 0 01 0.211,0.163 l 4.5,5 Z"/>
		<path fill="#31373D" d="M 33.9941,28.4443 a 0.75,0.75 0 01 0.039,0.38 l -0.709,4.541 a 0.75,0.75 0 01 -0.34,0.518 c -6.1,3.867 -6.205,3.867 -6.484,3.867 c -0.333,0 -0.434,0 -5.225,-3.92 a 0.75,0.75 0 01 -0.1,-1.062 l 4.25,-5.083 a 0.75,0.75 0 01 0.274,-0.205 l 6.083,-2.667 a 0.75,0.75 0 01 1.003,0.422 l 1.209,3.209 Z"/>
	</g>
</svg>

<svg xmlns="http://www.w3.org/2000/svg" viewBox="0 0 36 36">
	<circle fill="#F5F8FA" cx="18" cy="18" r="18"/>
	
	<g fill="none" stroke-width="2" stroke="#CCD6DD">
		<path d="M 18,10 L 18,3"/>
		<path d="M 11.417,14.5 L 3.3755,11.9575"/>
		<path d="M 25.042,14.2085 L 31.792,12.25"/>
		<path d="M 27.042,29.167 L 21.583,21.834"/>
		<path d="M 8.75,29.0835 L 13.875,21.7085"/>
		<path d="M 3.5,26.0625 L 1.3125,18"/>
		<path d="M 22,33 L 13,33"/>
		<path d="M 32.1255,26.1255 L 34.25,17.5"/>
		<path d="M 30.313,6.688 L 22.751,2.313"/>
		<path d="M 5.5,6.6875 L 11.6885,2.2495"/>
	</g>
	
	<!-- also check out early twemoji relases which used clip-path -->
	
	<path d="M 25.493,13.516 A 1,1 0 01 25.865,14.652 L 22.948,23.319 A 1,1 0 01 22,24 L 13.042,24 A 1,1 0 01 12.082,23.28 L 9.582,14.697 A 1,1 0 01 9.957,13.606 L 17.124,8.439 A 1,1 0 01 18.285,8.433 L 25.493,13.516 Z"   fill="#31373D"/>
	
	<path d="M 0.642,19.302 L 0.04,18.788 C 0.028,18.525 0,18.266 0,18 C 0,12.884 2.145,8.277 5.572,5 L 6,5 A 1,1 0 01 6.98,6.2 L 5.647,12.741 A 1,1 0 01 5.539,13.032 L 2.164,19.032 A 1,1 0 01 0.642,19.302 Z"    fill="#31373D"/>
	
	
	<path d="M 10.634,2.306 L 11.155,1.356 C 13.266,0.486 15.575,0 18,0 C 20.18,0 22.26,0.407 24.193,1.117 L 24.485,2.56 A 0.75,0.75 0 01 23.872,3.449 L 17.788,4.449 A 0.75,0.75 0 01 17.545,4.449 L 11.17,3.407 A 0.75,0.75 0 01 10.634,2.306 Z"    fill="#31373D"/>
	
	<path d="M 34.22,19

L 34.213,19
C 33.973,19 33.741,19.053 33.601,18.858
C 33.549,18.786 33.511,18.791 33.487,18.707
C 33.258,18.226 31.598,15.429 30.106,12.925

A 0.75,0.75 0 01 30.013,12.701
L 28.846,6.503
A 0.75,0.75 0 01 29.63,5.624
L 31.134,5.719
C 34.144,8.936 36,13.247 36,18
C 36,18.083 35.989,18.164 35.988,18.247
C 34.543,19.094 34.418,19 34.22,19 Z

"    fill="#31373D"/>
	<path d="M 14.29,33.894 L 12.79,35.227 C 8.199,33.84 4.382,30.673 2.146,26.524 C 2.636,24.565 2.794,24.5 3.331,24.5 A 0.75,0.75 0 01 3.573,24.539 C 3.645,24.564 3.754,24.6 9.639,27.669 A 0.75,0.75 0 01 9.85,27.832 L 14.35,32.832 A 0.75,0.75 0 01 14.29,33.894 Z"    fill="#31373D"/>
	<path d="M 32.784,25.236 L 33.496,27.125 C 31.196,31.023 27.479,33.977 23.042,35.271 L 21.275,33.831 A 0.75,0.75 0 01 21.175,32.769 L 25.425,27.686 A 0.75,0.75 0 01 25.699,27.481 L 31.782,24.814 A 0.75,0.75 0 01 32.784,25.236 Z"    fill="#31373D"/>
</svg>
